X:6913
T:The Hills Of Old
O:england
R:reel
C:Ed Reavy
M:2/2
L:1/8
N:Ireland has no mountains, only high hills. And these
N:hills are older than the centuries of man, and
N:older too than the many tunes he fondly fashions.
K:F
de|fagf dcAF|G2 AG FDCD|FEFG AGFG|cAGc Adde|
fagb agfe|1dfec dcAG|FGA=B cdeg|fdec Adde:|
2dfec dcAE|FGA=B c2 AF|G=BAG FDDe||f2 af Afaf|
Afaf gece|f2 af Afaf|gece fdde|f2 de (3efe ce|
defd cAGA|FEDE FGAc|fdec Adde:|2FEDE FGA=B|cAGE D2||
